public/new/frame-18.svg

<svg fill="none" height="39" viewBox="0 0 39 39" width="39" xmlns="http://www.w3.org/2000/svg" xmlns:xlink="http://www.w3.org/1999/xlink"><linearGradient id="a" gradientUnits="userSpaceOnUse" x1="36.8727" x2="4.60909" y1="4.25455" y2="32.6182"><stop offset="0" stop-color="#1ea"/><stop offset="1" stop-color="#d229fb"/></linearGradient><circle cx="19.5" cy="19.5" fill="url(#a)" r="19.5"/><g fill="#fff"><path d="m11.6219 24.7075c.142-.142.3372-.2248.5442-.2248h18.7735c.3431 0 .5146.4141.2721.6566l-3.7086 3.7085c-.1419.142-.3371.2248-.5441.2248h-18.77354c-.34306 0-.51459-.414-.27208-.6565z"/><path d="m11.6219 10.861c.1479-.142.3431-.2248.5442-.2248h18.7735c.3431 0 .5146.4141.2721.6566l-3.7086 3.7085c-.1419.142-.3371.2248-.5441.2248h-18.77354c-.34306 0-.51459-.414-.27208-.6565z"/><path d="m27.5031 17.7399c-.1419-.142-.3371-.2248-.5441-.2248h-18.77354c-.34306 0-.51459.414-.27208.6565l3.70852 3.7086c.142.142.3372.2248.5442.2248h18.7735c.3431 0 .5146-.4141.2721-.6566z"/></g></svg>

<svg width="39" height="39" viewBox="0 0 39 39" fill="none" xmlns="http://www.w3.org/2000/svg">
<circle cx="19.5" cy="19.5" r="19.5" fill="url(#paint0_linear_28_720)"/>
<path d="M11.6219 24.7075C11.7639 24.5655 11.9591 24.4827 12.1661 24.4827H30.9396C31.2827 24.4827 31.4542 24.8968 31.2117 25.1393L27.5031 28.8478C27.3612 28.9898 27.166 29.0726 26.959 29.0726H8.18546C7.8424 29.0726 7.67087 28.6586 7.91338 28.4161L11.6219 24.7075Z" fill="white"/>
<path d="M11.6219 10.861C11.7698 10.719 11.965 10.6362 12.1661 10.6362H30.9396C31.2827 10.6362 31.4542 11.0503 31.2117 11.2928L27.5031 15.0013C27.3612 15.1433 27.166 15.2261 26.959 15.2261H8.18546C7.8424 15.2261 7.67087 14.8121 7.91338 14.5696L11.6219 10.861Z" fill="white"/>
<path d="M27.5031 17.7399C27.3612 17.5979 27.166 17.5151 26.959 17.5151H8.18546C7.8424 17.5151 7.67087 17.9291 7.91338 18.1716L11.6219 21.8802C11.7639 22.0222 11.9591 22.105 12.1661 22.105H30.9396C31.2827 22.105 31.4542 21.6909 31.2117 21.4484L27.5031 17.7399Z" fill="white"/>
<defs>
<linearGradient id="paint0_linear_28_720" x1="36.8727" y1="4.25455" x2="4.60909" y2="32.6182" gradientUnits="userSpaceOnUse">
<stop stop-color="#11EEAA"/>
<stop offset="1" stop-color="#D229FB"/>
</linearGradient>
</defs>
</svg>
